X:1
T:Title
%%score 1 { 2 | 3 }
L:1/8
Q:1/4=118
M:3/4
K:B
V:1 treble nm="Grand Piano, Soprano"
V:2 bass nm="Choir Pad, The Home of the Blest"
V:3 bass 
V:1
 [DF]2 [EG]2 [DF]2 | [=D^E]2 [^DF]4 | [DF][DF] [EG]2 [DF]2 | [=D^E]2 [^DF]4 | [DB]2 [Fc]2 [FB]2 | %5
w: By~Rigdon~McCoy~McIntosh,~1883 * *|||||
 [FA]2 [FB]2 [FA]2 | [^EG]2 F4 | [DB]2 [DA]2 [DB]2 | [Dc]2 [DB]4 | [DB][DB] [DA]2 [DB]2 | %10
w: |||||
 [Dc]2 [DB]4 | [Fc][Fc] [Fd]2 [Fc]2 | [FB]2 [Ec]2 [DB]2 | [CA]2 [DB]4 | z2 [Fc]2 [FB]2 | %15
w: |||||
 [Fc]2 [Fd]4 | z2 [Ge]2 [GB]2 | [Ge]2 [Fd]4 | z2 [DF]2 [FB]2 | [Fd]2 [Fd]2 [Fc]2 | [^EB]2 [Fc]4 | %21
w: ||||||
 z2 [Fc]2 [FB]2 | [Fc]2 [Fd]4 | z2 [Ge]2 [GB]2 | [Ge]2 [Fd]4 | z2 [DF]2 [FB]2 | [Fd]2 [Ec]2 [DB]2 | %27
w: ||||||
 [CA]2 [DB]4- | [DB]4 z2 |] %29
w: ||
V:2
 B,2 B,2 B,2 | B,2 B,4 | B,B, B,2 B,2 | B,2 B,4 | F,2 A,2 B,2 | C2 D2 C2 | B,2 A,4 | %7
 G,2 ^^F,2 G,2 | A,2 G,4 | G,G, ^^F,2 G,2 | A,2 G,4 | A,A, B,2 A,2 | B,G, G,2 F,2 | F,2 F,4 | %14
 z2 A,2 B,2 | A,2 B,4 | z2 B,2 B,2 | B,2 B,4 | z2 B,2 D2 | B,2 B,2 C2 | C2 A,4 | z2 A,2 B,2 | %22
 A,2 B,4 | z2 B,2 B,2 | B,2 B,4 | z2 B,2 D2 | B,2 G,2 F,2 | F,2 F,4- | F,4 z2 |] %29
V:3
 B,,2 B,,2 B,,2 | B,,2 B,,4 | B,,B,, B,,2 B,,2 | B,,2 B,,4 | B,,2 F,E, D,2 | F,2 B,,2 C,2 | %6
 C,2 F,4 | z2 D,2 D,2 | D,2 z2 z2 | z2 D,2 D,2 | D,2 z2 z2 | F,F, z2 F,2 | .G,2 E,2 z2 | z2 B,,4 | %14
 z2 F,2 D,2 | F,2 z2 z2 | z2 E,2 E,2 | E,2 B,,4 | z2 B,,2 B,,2 | B,,2 z2 A,2 | G,2 F,4 | %21
 z2 F,2 D,2 | F,2 z2 z2 | z2 E,2 E,2 | E,2 B,,4 | z2 B,,2 B,,2 | B,,2 E,2 z2 | z2 B,,4- | %28
 B,,4 z2 |] %29

